src/iconfont/glyphs/align-center.svg

<svg xmlns="http://www.w3.org/2000/svg" viewBox="0 0 1024 1024"><path fill="currentColor" d="M804.558 438.861H219.441c-24.236 0-43.884-19.648-43.884-43.884s19.648-43.884 43.884-43.884h585.117c24.236 0 43.884 19.648 43.884 43.884s-19.648 43.884-43.884 43.884m175.535-234.047H43.906C19.67 204.814.022 185.166.022 160.93s19.648-43.884 43.884-43.884h936.187c24.236 0 43.884 19.648 43.884 43.884s-19.648 43.884-43.884 43.884m0 468.093H43.906c-24.236 0-43.884-19.648-43.884-43.884s19.648-43.884 43.884-43.884h936.187c24.236 0 43.884 19.648 43.884 43.884s-19.648 43.884-43.884 43.884M804.558 906.954H219.441c-24.236 0-43.884-19.648-43.884-43.884s19.648-43.884 43.884-43.884h585.117c24.236 0 43.884 19.648 43.884 43.884s-19.648 43.884-43.884 43.884"/></svg>

<?xml version="1.0" encoding="UTF-8" standalone="no"?>
<!DOCTYPE svg PUBLIC "-//W3C//DTD SVG 1.1//EN" "http://www.w3.org/Graphics/SVG/1.1/DTD/svg11.dtd">
<svg width="100%" height="100%" viewBox="0 0 1024 1024" version="1.1" xmlns="http://www.w3.org/2000/svg" xmlns:xlink="http://www.w3.org/1999/xlink" xml:space="preserve" xmlns:serif="http://www.serif.com/" style="fill-rule:evenodd;clip-rule:evenodd;stroke-linejoin:round;stroke-miterlimit:2;">
    <g transform="matrix(1,0,0,1,0.023,0)">
        <path d="M804.558,438.861L219.441,438.861C195.205,438.861 175.557,419.213 175.557,394.977C175.557,370.741 195.205,351.093 219.441,351.093L804.558,351.093C828.794,351.093 848.442,370.741 848.442,394.977C848.442,419.213 828.794,438.861 804.558,438.861M980.093,204.814L43.906,204.814C19.67,204.814 0.022,185.166 0.022,160.93C0.022,136.694 19.67,117.046 43.906,117.046L980.093,117.046C1004.33,117.046 1023.98,136.694 1023.98,160.93C1023.98,185.166 1004.33,204.814 980.093,204.814M980.093,672.907L43.906,672.907C19.67,672.907 0.022,653.259 0.022,629.023C0.022,604.787 19.67,585.139 43.906,585.139L980.093,585.139C1004.33,585.139 1023.98,604.787 1023.98,629.023C1023.98,653.259 1004.33,672.907 980.093,672.907M804.558,906.954L219.441,906.954C195.205,906.954 175.557,887.306 175.557,863.07C175.557,838.834 195.205,819.186 219.441,819.186L804.558,819.186C828.794,819.186 848.442,838.834 848.442,863.07C848.442,887.306 828.794,906.954 804.558,906.954" style="fill-rule:nonzero;"/>
    </g>
</svg>
